X:1
T:Polska fr\aan Lappfj\"ard
L:1/16
M:3/4
I:linebreak $
K:Dmin
V:1 treble 
V:1
|:"Dm" D2FA d2eg f2ed |"A7" ^c2Ac e2g2 g2fe |"Dm" f2gf"A" e2fe"Dm" d2fg |1,3 %3
 f2"A7"ed ^cAce a4 :|2,4 f2"A7"e^c"Dm" d8 ::$"F"{c} a2>f2 f2a2 bagf |"C" e2c2 e2g2 agfe | %7
"F" f2>c2 f2a2 bagf |"C" e2c2 e2g2"A7" agfe |"Dm" d2>^c2 d2e2 f2ed |$"A7" ^c2Ac e2g2 g2fe | %11
"Dm" f2gf"A" e2fe"Dm" d2fg |"A7" fed^c"Dm" d8 :| %13
